X:1
T:You Call Everybody Darling
T:You Call Everybody Darling
C:Clem Watts
Z:All Rights Reserved
L:1/4
M:4/4
K:Bb
V:1 treble nm="Piano" snm="Pno."
%%MIDI program 0
V:1
"Bb" B/A/B/G/"F7" A/^G/A/F/ |"Bb6" G"F7" d3 |"Bb" B/A/B/G/"F7" A/^G/A/^F/ |"Bb6""Bdim7""F7" G4 | %4
w: Though you're al- ways wax- ing sen- ti-|men- tal,|Your sweet words are all I ev- er|hear.|
"Bb" d/^c/d/B/"F7" =c/=B/c/A/ |"Bb" B"Ab""G7" F3 |"C7" G/^F/G/^G/"F7" A/G/A/=F/ |"Bb" B4 |: %8
w: You don't real- ly give a con- ti-|nen- tal,|Deep down in you're heart you're not sin-|cere.|
"Bb" F3 F | G F D F |"Bb" d2 B2- | B3 F | G F D F | G F D F |"F7" A4 | A3 ^G | A ^G A G | A c2 F | %18
w: You call|ev- 'ry- bod- y|Dar- ling,|_ and|ev- 'ry- bod- y|calls you Dar- ling,|too,|_ You|don't mean what you're|say- ing, It's|
"Bb" B A B c | d B2"Bdim7" =B |"C7" c"B7" =B"C7" c d | c B A G |"F7" A A"Bb/G" B"G#m" =B | %23
w: just a game you're|play- ing, but|some- day you'll find|some- one else, Who|plays as well as|
"F7/A" c3 D |"Bb" F3 F | G F D F | d2 B2- | B3 B | c B A B |"Bb7" c B A _A |"Eb" G4- | G3 ^F | %32
w: you. If|you call|ev- 'ry- bod- y|Darl- ing|_ Then|love wont come a-|knock- ing at your|door.|_ And|
 G ^F G A |"Eb7" B3 G |"Bb" F =E F B |"G" d3 G |"C7" G ^F G ^G |"F7" A ^G A F |1"Bb""Bb/D" B4 | %39
w: as the years go|by, you'll|sit and won- der|why,, No-|bod- y calls you|Darl- ing an- y-|more.|
"Dbdim7""F7" z4 :|2"Bb""Ebm" B4 |"Bb" B4 |] %42
w: |||

